X:19036
T:Sweets Of May, The
R:Jig
C:Trad.
O:Ireland
M:6/8
L:1/8
Q:1/8=200
K:G
dc|"G"BAG "D7"AGF|"G"G2G G2A|BcB GAB|"Am7"c3 "D7"d2c|
"G"BAG "D7"AGF|"G"G2G G2A|"Am7"BdB "D7"cAF|"G"G3 G:|
|:FG|"Am"ABA A2G|E2F G3|ABA c2d|e2d "Em"c2B|
"Am"ABA A2G|E2F G3|A2A "Em"BAG|"Am"A3 A:|
|:Bc|"D7"d3 ded|D3 D3|"C"c3 cdc|"D7"D3 D3|
"G"G2D G2A|B2G B2c|"Am"ded "D7"cBA|"G"G3 G:|
% --------------------------------- T ---------------------------------------

